devices/22/drive-harddisk.svg

<?xml version="1.0" encoding="UTF-8" standalone="no"?>
<!-- Created with Inkscape (http://www.inkscape.org/) -->

<svg
   xmlns:svg="http://www.w3.org/2000/svg"
   xmlns="http://www.w3.org/2000/svg"
   xmlns:xlink="http://www.w3.org/1999/xlink"
   version="1.0"
   width="22"
   height="22"
   id="svg2">
  <defs
     id="defs4">
    <linearGradient
       id="linearGradient3341">
      <stop
         id="stop3343"
         style="stop-color:#333;stop-opacity:1"
         offset="0" />
      <stop
         id="stop3345"
         style="stop-color:black;stop-opacity:1"
         offset="1" />
    </linearGradient>
    <linearGradient
       x1="27.566711"
       y1="44.514233"
       x2="27.566711"
       y2="52.980434"
       id="linearGradient2439"
       xlink:href="#linearGradient3341"
       gradientUnits="userSpaceOnUse"
       gradientTransform="matrix(0.3337769,0,0,0.4810036,0.314245,-4.0543233)" />
    <linearGradient
       id="linearGradient2215">
      <stop
         id="stop2223"
         style="stop-color:#555556;stop-opacity:1"
         offset="0" />
      <stop
         id="stop2219"
         style="stop-color:#0c0c0d;stop-opacity:1"
         offset="1" />
    </linearGradient>
    <linearGradient
       x1="53.99139"
       y1="87.89592"
       x2="53.99139"
       y2="104.28131"
       id="linearGradient2437"
       xlink:href="#linearGradient2215"
       gradientUnits="userSpaceOnUse"
       gradientTransform="matrix(0.173898,0,0,0.2485308,0.1263817,-4.4876623)" />
    <linearGradient
       id="linearGradient3484">
      <stop
         id="stop3486"
         style="stop-color:#9b9b9b;stop-opacity:1"
         offset="0" />
      <stop
         id="stop3488"
         style="stop-color:#b6b6b6;stop-opacity:1"
         offset="1" />
    </linearGradient>
    <linearGradient
       x1="7.8514447"
       y1="19.967693"
       x2="7.8514447"
       y2="7.034781"
       id="linearGradient2434"
       xlink:href="#linearGradient3484"
       gradientUnits="userSpaceOnUse"
       gradientTransform="matrix(0.9032258,0,0,1.3879926,0.1612901,-9.7364456)" />
    <linearGradient
       id="linearGradient7056">
      <stop
         id="stop7064"
         style="stop-color:#e1e1e2;stop-opacity:1"
         offset="0" />
      <stop
         id="stop7060"
         style="stop-color:#d2d2d3;stop-opacity:1"
         offset="1" />
    </linearGradient>
    <linearGradient
       x1="-35.53907"
       y1="-144.20657"
       x2="-35.53907"
       y2="-108.32133"
       id="linearGradient2432"
       xlink:href="#linearGradient7056"
       gradientUnits="userSpaceOnUse"
       gradientTransform="matrix(0.3303835,0,0,0.5037036,25.325353,72.665159)" />
    <linearGradient
       id="linearGradient7056-300">
      <stop
         id="stop3597"
         style="stop-color:#cbcbcb;stop-opacity:1"
         offset="0" />
      <stop
         id="stop3599"
         style="stop-color:#bdbdbe;stop-opacity:1"
         offset="1" />
    </linearGradient>
    <linearGradient
       x1="35.341114"
       y1="37.03133"
       x2="35.341114"
       y2="13.899854"
       id="linearGradient2427"
       xlink:href="#linearGradient7056-300"
       gradientUnits="userSpaceOnUse"
       gradientTransform="matrix(0.5093987,0,0,0.6052384,-4.0726568,-6.4127228)" />
    <linearGradient
       id="linearGradient3776">
      <stop
         id="stop3778"
         style="stop-color:#a0a0a1;stop-opacity:1"
         offset="0" />
      <stop
         id="stop3780"
         style="stop-color:#e0e0e1;stop-opacity:1"
         offset="1" />
    </linearGradient>
    <linearGradient
       x1="44.261497"
       y1="53.951618"
       x2="44.261497"
       y2="28.299864"
       id="linearGradient2424"
       xlink:href="#linearGradient3776"
       gradientUnits="userSpaceOnUse"
       gradientTransform="matrix(0.1150977,0,0,0.1380877,6.9722228,5.3900894)" />
  </defs>
  <g
     id="layer1">
    <path
       d="m 0.52462571,17.650218 c 6.98229109,0 13.96458029,0 20.94687229,0 0.05626,0.157007 0.0091,0.227438 0.02463,0.41769 -0.425832,3.380051 -0.316947,3.410658 -1.088034,3.410658 -0.302022,0.04823 -12.1776446,0 -18.8582323,0 -0.83738782,0 -0.62580551,0.06576 -1.04985669,-3.978565 l 0.0246257,0.150217 z"
       id="rect2992"
       style="fill:url(#linearGradient2437);fill-opacity:1;fill-rule:nonzero;stroke:url(#linearGradient2439);stroke-width:1;stroke-linecap:butt;stroke-linejoin:miter;stroke-miterlimit:4;stroke-opacity:1;stroke-dasharray:none;stroke-dashoffset:0;marker:none;visibility:visible;display:inline;overflow:visible;enable-background:accumulate" />
    <path
       d="M 2.3482447,1.8681645 0.5206494,17.484254 C 0.5070003,17.484254 0.5,17.488354 0.5,17.499994 l 21.000001,0 c 0,-0.01163 -0.007,-0.01574 -0.02065,-0.01574 L 19.339285,1.5531518 c 0,0 -0.262844,-1.05315185 -1.273489,-1.05315185 -0.963407,0 -13.3610983,0 -14.376063,0 -1.0621517,0 -1.3414883,1.36816455 -1.3414883,1.36816455 z"
       id="rect2990"
       style="fill:url(#linearGradient2432);fill-opacity:1;fill-rule:nonzero;stroke:url(#linearGradient2434);stroke-width:0.99999994;stroke-linecap:round;stroke-linejoin:round;stroke-miterlimit:4;stroke-opacity:1;stroke-dasharray:none;stroke-dashoffset:0;marker:none;visibility:visible;display:inline;overflow:visible;enable-background:accumulate" />
    <path
       d="m 1.4121789,17.499999 19.1756441,0"
       id="path2215"
       style="opacity:0.6;fill:none;stroke:white;stroke-width:0.99999994;stroke-linecap:round;stroke-linejoin:round;stroke-miterlimit:4;stroke-opacity:1;stroke-dasharray:none;display:inline" />
    <path
       d="M 5.3333331,3 3.9396393,3.9687925 3.3729727,7.1031206 C 3.2875291,7.3185533 3.235135,7.534676 3.235135,7.7679782 c 0,0.012954 -2.854e-4,0.025087 0,0.037992 l -0.015315,0.09498 c 0.010274,4.588e-4 0.020412,-5.678e-4 0.030631,0 C 3.291342,8.4224336 3.55444,8.9043771 3.9855859,9.3066487 3.0612705,10.112118 2.5,11.108872 2.5,12.19403 2.5,14.851796 5.7851893,17 9.836035,17 c 0.253177,0 0.503757,-0.0026 0.75045,-0.019 l 7.045046,0 L 19.5,15.290367 17.218017,3.9687925 15.793691,3 5.3333331,3 z"
       id="path3365"
       style="opacity:0.4;fill:white;fill-opacity:1;fill-rule:nonzero;stroke:none;stroke-width:0.8855623;marker:none;visibility:visible;display:inline;overflow:visible;enable-background:accumulate" />
    <path
       d="M 5.3333329,2 3.9396391,2.9687924 3.3729725,6.1031207 C 3.287529,6.3185535 3.235135,6.5346759 3.235135,6.7679782 c 0,0.012954 -2.854e-4,0.025087 0,0.037992 l -0.015315,0.09498 c 0.010274,4.589e-4 0.020412,-5.678e-4 0.030631,0 C 3.291342,7.4224338 3.5544402,7.9043772 3.985586,8.306649 3.0612705,9.1121177 2.5,10.108871 2.5,11.19403 2.5,13.851796 5.785189,15.999999 9.8360348,16 10.089212,16 10.339791,15.9974 10.586486,15.981 l 7.045044,0 L 19.5,14.290367 17.218014,2.9687924 15.793691,2 5.3333329,2 z"
       id="path3367"
       style="fill:url(#linearGradient2427);fill-opacity:1;fill-rule:nonzero;stroke:none;stroke-width:0.8855623;marker:none;visibility:visible;display:inline;overflow:visible;enable-background:accumulate" />
    <path
       d="M 13.5,11.000001 C 13.500296,11.828375 12.380923,12.5 11,12.5 9.619079,12.5 8.4997042,11.828375 8.5000002,11.000001 8.4997042,10.171623 9.619079,9.4999998 11,9.4999998 c 1.380923,0 2.500296,0.6716232 2.5,1.5000012 z"
       id="path3369"
       style="fill:#d4d4d5;fill-opacity:1;fill-rule:nonzero;stroke:url(#linearGradient2424);stroke-width:0.99999994;stroke-linecap:round;stroke-linejoin:round;stroke-miterlimit:4;stroke-opacity:1;stroke-dasharray:none;stroke-dashoffset:0;marker:none;visibility:visible;display:inline;overflow:visible;enable-background:accumulate" />
  </g>
</svg>

<?xml version="1.0" encoding="UTF-8" standalone="no"?>
<!-- Created with Inkscape (http://www.inkscape.org/) -->
<svg
   xmlns:svg="http://www.w3.org/2000/svg"
   xmlns="http://www.w3.org/2000/svg"
   xmlns:xlink="http://www.w3.org/1999/xlink"
   version="1.0"
   width="22"
   height="22"
   id="svg2">
  <defs
     id="defs4">
    <linearGradient
       id="linearGradient3341">
      <stop
         id="stop3343"
         style="stop-color:#333333;stop-opacity:1"
         offset="0" />
      <stop
         id="stop3345"
         style="stop-color:#000000;stop-opacity:1"
         offset="1" />
    </linearGradient>
    <linearGradient
       x1="27.566711"
       y1="44.514233"
       x2="27.566711"
       y2="52.980434"
       id="linearGradient2439"
       xlink:href="#linearGradient3341"
       gradientUnits="userSpaceOnUse"
       gradientTransform="matrix(0.3337769,0,0,0.4810036,0.314245,-4.0543233)" />
    <linearGradient
       id="linearGradient2215">
      <stop
         id="stop2223"
         style="stop-color:#555556;stop-opacity:1"
         offset="0" />
      <stop
         id="stop2219"
         style="stop-color:#0c0c0d;stop-opacity:1"
         offset="1" />
    </linearGradient>
    <linearGradient
       x1="53.99139"
       y1="87.89592"
       x2="53.99139"
       y2="104.28131"
       id="linearGradient2437"
       xlink:href="#linearGradient2215"
       gradientUnits="userSpaceOnUse"
       gradientTransform="matrix(0.173898,0,0,0.2485308,0.1263817,-4.4876623)" />
    <linearGradient
       id="linearGradient3484">
      <stop
         id="stop3486"
         style="stop-color:#9b9b9b;stop-opacity:1"
         offset="0" />
      <stop
         id="stop3488"
         style="stop-color:#b6b6b6;stop-opacity:1"
         offset="1" />
    </linearGradient>
    <linearGradient
       x1="7.8514447"
       y1="19.967693"
       x2="7.8514447"
       y2="7.034781"
       id="linearGradient2434"
       xlink:href="#linearGradient3484"
       gradientUnits="userSpaceOnUse"
       gradientTransform="matrix(0.9032258,0,0,1.3879926,0.1612901,-9.7364456)" />
    <linearGradient
       id="linearGradient7056">
      <stop
         id="stop7064"
         style="stop-color:#e1e1e2;stop-opacity:1"
         offset="0" />
      <stop
         id="stop7060"
         style="stop-color:#d2d2d3;stop-opacity:1"
         offset="1" />
    </linearGradient>
    <linearGradient
       x1="-35.53907"
       y1="-144.20657"
       x2="-35.53907"
       y2="-108.32133"
       id="linearGradient2432"
       xlink:href="#linearGradient7056"
       gradientUnits="userSpaceOnUse"
       gradientTransform="matrix(0.3303835,0,0,0.5037036,25.325353,72.665159)" />
    <linearGradient
       id="linearGradient7056-300">
      <stop
         id="stop3597"
         style="stop-color:#cbcbcb;stop-opacity:1"
         offset="0" />
      <stop
         id="stop3599"
         style="stop-color:#bdbdbe;stop-opacity:1"
         offset="1" />
    </linearGradient>
    <linearGradient
       x1="35.341114"
       y1="37.03133"
       x2="35.341114"
       y2="13.899854"
       id="linearGradient2427"
       xlink:href="#linearGradient7056-300"
       gradientUnits="userSpaceOnUse"
       gradientTransform="matrix(0.5093987,0,0,0.6052384,-4.0726568,-6.4127228)" />
    <linearGradient
       id="linearGradient3776">
      <stop
         id="stop3778"
         style="stop-color:#a0a0a1;stop-opacity:1"
         offset="0" />
      <stop
         id="stop3780"
         style="stop-color:#e0e0e1;stop-opacity:1"
         offset="1" />
    </linearGradient>
    <linearGradient
       x1="44.261497"
       y1="53.951618"
       x2="44.261497"
       y2="28.299864"
       id="linearGradient2424"
       xlink:href="#linearGradient3776"
       gradientUnits="userSpaceOnUse"
       gradientTransform="matrix(0.1150977,0,0,0.1380877,6.9722228,5.3900894)" />
  </defs>
  <g
     id="layer1">
    <path
       d="M 0.52462571,17.650218 C 7.5069168,17.650218 14.489206,17.650218 21.471498,17.650218 C 21.527762,17.807225 21.480593,17.877656 21.496123,18.067908 C 21.070291,21.447959 21.179176,21.478566 20.408089,21.478566 C 20.106067,21.526794 8.2304444,21.478566 1.5498567,21.478566 C 0.71246888,21.478566 0.92405119,21.544328 0.50000001,17.500001 L 0.52462571,17.650218 z"
       id="rect2992"
       style="fill:url(#linearGradient2437);fill-opacity:1;fill-rule:nonzero;stroke:url(#linearGradient2439);stroke-width:1;stroke-linecap:butt;stroke-linejoin:miter;marker:none;marker-start:none;marker-mid:none;marker-end:none;stroke-miterlimit:4;stroke-dasharray:none;stroke-dashoffset:0;stroke-opacity:1;visibility:visible;display:inline;overflow:visible;enable-background:accumulate" />
    <path
       d="M 2.3482447,1.8681645 L 0.5206494,17.484254 C 0.50700031,17.484254 0.50000001,17.488365 0.50000001,17.499999 L 21.500001,17.499999 C 21.500001,17.488365 21.492999,17.484254 21.479352,17.484254 L 19.339285,1.5531518 C 19.339285,1.5531518 19.076441,0.49999995 18.065796,0.49999995 C 17.102389,0.49999995 4.7046977,0.49999995 3.689733,0.49999995 C 2.6275813,0.49999995 2.3482447,1.8681645 2.3482447,1.8681645 z"
       id="rect2990"
       style="fill:url(#linearGradient2432);fill-opacity:1;fill-rule:nonzero;stroke:url(#linearGradient2434);stroke-width:0.99999994;stroke-linecap:round;stroke-linejoin:round;marker:none;marker-start:none;marker-mid:none;marker-end:none;stroke-miterlimit:4;stroke-dasharray:none;stroke-dashoffset:0;stroke-opacity:1;visibility:visible;display:inline;overflow:visible;enable-background:accumulate" />
    <path
       d="M 1.4121789,17.499999 L 20.587823,17.499999"
       id="path2215"
       style="opacity:0.6;fill:none;fill-opacity:1;fill-rule:evenodd;stroke:#ffffff;stroke-width:0.99999994;stroke-linecap:round;stroke-linejoin:round;stroke-miterlimit:4;stroke-dasharray:none;stroke-opacity:1;display:inline" />
    <path
       d="M 5.3333331,3 L 3.9396393,3.9687925 L 3.3729727,7.1031206 C 3.2875291,7.3185533 3.235135,7.534676 3.235135,7.7679782 C 3.235135,7.7809326 3.2348496,7.793065 3.235135,7.8059701 L 3.2198197,7.9009497 C 3.2300935,7.9014085 3.2402313,7.9003819 3.2504504,7.9009497 C 3.2913415,8.4224331 3.5544394,8.9043766 3.9855853,9.3066482 C 3.0612705,10.112118 2.5,11.108872 2.5,12.19403 C 2.5,14.851796 5.7851893,17 9.836035,17 C 10.089212,17 10.339792,16.997385 10.586485,16.981004 L 17.631531,16.981004 L 19.5,15.290367 L 17.218017,3.9687925 L 15.793691,3 L 5.3333331,3 z"
       id="path3365"
       style="opacity:0.4;fill:#ffffff;fill-opacity:1;fill-rule:nonzero;stroke:none;stroke-width:0.8855623;stroke-linecap:round;stroke-linejoin:round;marker:none;marker-start:none;marker-mid:none;marker-end:none;stroke-miterlimit:4;stroke-dasharray:none;stroke-dashoffset:0;stroke-opacity:1;visibility:visible;display:inline;overflow:visible;enable-background:accumulate" />
    <path
       d="M 5.3333329,2 L 3.9396391,2.9687924 L 3.3729725,6.1031207 C 3.287529,6.3185535 3.235135,6.5346759 3.235135,6.7679782 C 3.235135,6.7809324 3.2348496,6.7930649 3.235135,6.80597 L 3.2198196,6.9009497 C 3.2300935,6.9014086 3.2402313,6.9003819 3.2504502,6.9009497 C 3.2913414,7.4224333 3.5544394,7.9043767 3.9855852,8.3066485 C 3.0612705,9.1121177 2.5,10.108871 2.5,11.19403 C 2.5,13.851796 5.785189,15.999999 9.8360348,16 C 10.089212,16 10.339791,15.997386 10.586486,15.981004 L 17.63153,15.981004 L 19.5,14.290367 L 17.218014,2.9687924 L 15.793691,2 L 5.3333329,2 z"
       id="path3367"
       style="fill:url(#linearGradient2427);fill-opacity:1;fill-rule:nonzero;stroke:none;stroke-width:0.8855623;stroke-linecap:round;stroke-linejoin:round;marker:none;marker-start:none;marker-mid:none;marker-end:none;stroke-miterlimit:4;stroke-dasharray:none;stroke-dashoffset:0;stroke-opacity:1;visibility:visible;display:inline;overflow:visible;enable-background:accumulate" />
    <path
       d="M 13.5,11.000001 C 13.500296,11.828375 12.380923,12.5 11,12.5 C 9.619079,12.5 8.4997042,11.828375 8.5000002,11.000001 C 8.4997042,10.171623 9.619079,9.4999998 11,9.4999998 C 12.380923,9.4999998 13.500296,10.171623 13.5,11.000001 z"
       id="path3369"
       style="fill:#d4d4d5;fill-opacity:1;fill-rule:nonzero;stroke:url(#linearGradient2424);stroke-width:0.99999994;stroke-linecap:round;stroke-linejoin:round;marker:none;marker-start:none;marker-mid:none;marker-end:none;stroke-miterlimit:4;stroke-dasharray:none;stroke-dashoffset:0;stroke-opacity:1;visibility:visible;display:inline;overflow:visible;enable-background:accumulate" />
  </g>
</svg>
